X:1
T:Title
%%score { ( 1 3 ) | ( 2 4 ) }
L:1/8
Q:1/4=100
M:4/4
K:F
V:1 treble nm="Grand Piano"
V:3 treble 
V:2 bass 
V:4 bass 
V:1
 [DF]>[DG] [DF]>[DG] [DF]2 [Fd]2 | [Ed]4 [Ec]4 | F>G F>G F2 c2 | [Dc]4 F2 z2 | %4
w: J.~Lincoln~Hall * * * * *||||
 [B,GB]>[B,^FA] [B,GB]>[B,FA] [Gc]>[GB] [=FA]>[_EG] | [DF]2 [DG]2 [DA]2 [DB]2 | [Ed]2 [EG]4 [Ec]2 | %7
w: |||
 [_Ec]6 z2 | [DF]>[DG] [DF]>[DG] [DF]2 [Fd]2 | [Ed]4 [Ec]4 | F>G F>G F2 c2 | [Dc]4 F2 z2 | %12
w: |||||
 [B,GB]>[B,^FA] [B,GB]>[B,FA] [Gc]>[GB] [=FA]>[_EG] | [DF]2 [DG]2 [DA]2 [DB]2 | %14
w: ||
 [Ed]2 [_Ed]4 [Ec]2 | [DB]6 z2 | d4 ^c4 | [Fd]>[DB] [DA]>[DG] [DF]>D _E>=E | F2 [DB]2 [Dc]2 [DB]2 | %19
w: |||||
 [_EA]6[K:bass] z2 | z2 c2 z2 =B2 | [A_e]>[Ac] A>G F>E F>G | A2 G2 _E2 G2 | %23
w: ||||
 [DG]2 [DF]2 [^CE]2 [DF]2 | d4 ^c4 | [Fd]>[DB] [DA]>[DG] [DF]>D _E>=E | F2 [B,FB]2 [^Fc]2 [FB]2 | %27
w: ||||
 [_EG]6 z2 | [GB]>[^FA] [GB]>[FA] [Gc]>[GB] [=FA]>[_EG] | [DF]2 [DG]2 [DA]2 [DB]2 | %30
w: |||
 [Ed]2 [_Ed]4 [Ec]2 | [DB]6 z2 |] %32
w: ||
V:2
 [B,,B,]>[B,,B,] [B,,B,]>[B,,B,] [B,,B,]2 [B,,B,]2 | [C,B,]4 [C,B,]4 | %2
 [F,A,_E]>[F,A,E] [F,A,E]>[F,A,E] [F,A,E]2 [F,A,E]2 | [B,,B,]4 z2 ^F2 | %4
 _E,>E, E,>E, [E,B,]>[E,B,] [E,B,]>[E,B,] | [B,,B,]2 [B,,B,]2 [B,,B,]2 [B,,B,]2 | %6
 [C,B,]2 [C,B,]4 [C,B,]2 | F,2 A,4 z2 | [B,,B,]>[B,,B,] [B,,B,]>[B,,B,] [B,,B,]2 [B,,B,]2 | %9
 [C,B,]4 [C,B,]4 | [F,A,_E]>[F,A,E] [F,A,E]>[F,A,E] [F,A,E]2 [F,A,E]2 | [B,,B,]4 z2 ^F2 | %12
 _E,>E, E,>E, [E,B,]>[E,B,] [E,B,]>[E,B,] | [B,,B,]2 [B,,B,]2 [B,,B,]2 [B,,B,]2 | %14
 [C,B,]2 [F,A,]4 [F,A,]2 | [B,,F,B,]6 z2 | [B,F]4 [B,E]4 | %17
 [B,,B,]>[B,,B,] [B,,B,]>[B,,B,] [B,,B,]>D, _E,>=E, | F,2 [B,,F,]2 [B,,F,]2 [B,,F,]2 | F,2 z2 z4 | %20
 [F,C]4 [F,=B,]4 | [F,C]>[F,C] [F,CF]>[F,B,F] [F,A,]>E, F,>G, | %22
 [F,CF]2 [F,B,_E]2 [F,A,C]2 [F,A,E]2 | [B,,B,]2 [B,,B,]2 [B,,B,]2 [B,,B,]2 | [B,F]4 [B,E]4 | %25
 [B,,B,]>[B,,B,] [B,,B,]>[B,,B,] [B,,B,]>D, _E,>=E, | F,2 D,2 [D,B,]2 [D,B,]2 | [_E,B,]6 z2 | %28
 [_E,B,]>[E,B,] [E,B,]>[E,B,] [E,B,]>[E,B,] [E,B,]>[E,B,] | [B,,B,]2 [B,,B,]2 [B,,B,]2 [B,,B,]2 | %30
 [C,B,]2 [F,A,]4 [F,A,]2 | [B,,F,B,]6 z2 |] %32
V:3
 x8 | x8 | x8 | z4 [B,B]4 | x8 | x8 | x8 | x8 | x8 | x8 | x8 | z4 [B,B]4 | x8 | x8 | x8 | x8 | %16
 z2 B2 z2 B2 | x8 | x8 | z2[K:bass] F,2 F,2 z2 | [A_e]4 [_Ad]4 | x8 | x8 | x8 | z2 B2 z2 B2 | x8 | %26
 x8 | x8 | x8 | x8 | x8 | x8 |] %32
V:4
 x8 | x8 | x8 | z4 D,4 | x8 | x8 | x8 | A,->[G,A,] z z/ G,/ F,>_E, D,>C, | x8 | x8 | x8 | z4 D,4 | %12
 x8 | x8 | x8 | x8 | x8 | x8 | x8 | C,2- [F,,C,-]2 [F,,C,]2 z2 | x8 | x8 | x8 | x8 | x8 | x8 | x8 | %27
 x8 | x8 | x8 | x8 | x8 |] %32

